public/sponsors/Amazon.svg

<svg xmlns="http://www.w3.org/2000/svg" width="1200" height="800" fill="none" viewBox="0 0 1200 800"><path fill="#fff" d="M0 0h1200v800H0z"/><g clip-path="url(#a)"><path fill="#f90" d="M711.826 479.289c-53.979 39.787-132.219 61.015-199.582 61.015-94.454 0-179.486-34.935-243.817-93.039-5.054-4.569-.525-10.796 5.54-7.238 69.425 40.394 155.266 64.695 243.938 64.695 59.802 0 125.588-12.373 186.077-38.049 9.138-3.881 16.78 5.985 7.844 12.616"/><path fill="#f90" d="M734.267 453.613c-6.874-8.814-45.61-4.164-62.997-2.102-5.296.647-6.105-3.963-1.334-7.278 30.851-21.713 81.474-15.446 87.378-8.168 5.903 7.319-1.537 58.063-30.528 82.283-4.447 3.72-8.693 1.739-6.712-3.194 6.51-16.255 21.107-52.686 14.193-61.541"/><path fill="#221f1f" d="M672.484 290.947v-21.106c0-3.194 2.426-5.337 5.337-5.337h94.494c3.033 0 5.459 2.183 5.459 5.337v18.074c-.041 3.032-2.588 6.995-7.117 13.262l-48.965 69.911c18.195-.445 37.401 2.264 53.898 11.564 3.72 2.102 4.731 5.175 5.014 8.208v22.521c0 3.073-3.396 6.672-6.955 4.812-29.072-15.244-67.686-16.901-99.831.162-3.275 1.779-6.712-1.779-6.712-4.852v-21.39c0-3.437.04-9.3 3.477-14.516l56.729-81.353h-49.37c-3.032 0-5.458-2.143-5.458-5.297M327.784 422.641h-28.749c-2.749-.202-4.932-2.264-5.135-4.893V270.205c0-2.952 2.467-5.297 5.54-5.297h26.808c2.789.121 5.013 2.264 5.216 4.933v19.287h.525c6.995-18.64 20.136-27.333 37.846-27.333 17.993 0 29.234 8.693 37.321 27.333 6.954-18.64 22.764-27.333 39.706-27.333 12.049 0 25.231 4.973 33.277 16.133 9.098 12.413 7.238 30.447 7.238 46.256l-.041 93.12c0 2.951-2.466 5.337-5.539 5.337h-28.708c-2.871-.202-5.176-2.507-5.176-5.337v-78.2c0-6.226.566-21.753-.808-27.656-2.143-9.907-8.572-12.697-16.902-12.697-6.954 0-14.233 4.65-17.184 12.09s-2.669 19.894-2.669 28.263v78.2c0 2.951-2.466 5.337-5.539 5.337h-28.708c-2.912-.202-5.176-2.507-5.176-5.337l-.04-78.2c0-16.456 2.709-40.676-17.71-40.676-20.662 0-19.854 23.613-19.854 40.676v78.2c0 2.951-2.466 5.337-5.539 5.337M859.126 261.795c42.658 0 65.746 36.633 65.746 83.213 0 45.003-25.514 80.706-65.746 80.706-41.889 0-64.694-36.633-64.694-82.283 0-45.933 23.088-81.636 64.694-81.636m.243 30.123c-21.187 0-22.522 28.87-22.522 46.863 0 18.033-.283 56.527 22.279 56.527 22.28 0 23.331-31.054 23.331-49.977 0-12.453-.526-27.333-4.286-39.14-3.235-10.27-9.664-14.273-18.802-14.273M980.186 422.641h-28.627c-2.871-.202-5.176-2.507-5.176-5.337l-.04-147.584c.242-2.709 2.628-4.812 5.539-4.812h26.646c2.507.121 4.569 1.82 5.135 4.124v22.562h.526c8.046-20.176 19.331-29.799 39.181-29.799 12.9 0 25.47 4.65 33.56 17.386 7.52 11.807 7.52 31.66 7.52 45.933v92.877c-.32 2.588-2.71 4.65-5.54 4.65h-28.83c-2.63-.202-4.81-2.143-5.09-4.65v-80.14c0-16.133 1.86-39.747-18-39.747-6.991 0-13.42 4.691-16.615 11.807-4.043 9.017-4.569 17.993-4.569 27.94v79.453c-.04 2.951-2.547 5.337-5.62 5.337M597.155 352.164v-6.226c-20.783 0-42.738 4.447-42.738 28.95 0 12.414 6.429 20.824 17.467 20.824 8.087 0 15.325-4.974 19.894-13.06 5.66-9.947 5.377-19.287 5.377-30.488m28.992 70.072c-1.901 1.699-4.65 1.82-6.793.688-9.543-7.925-11.241-11.605-16.497-19.166-15.77 16.093-26.929 20.904-47.389 20.904-24.18 0-43.022-14.92-43.022-44.8 0-23.331 12.656-39.221 30.649-46.985 15.608-6.873 37.402-8.086 54.06-9.987v-3.72c0-6.833.526-14.92-3.477-20.823-3.518-5.297-10.23-7.48-16.133-7.48-10.958 0-20.743 5.62-23.128 17.265-.486 2.588-2.386 5.135-4.974 5.256l-27.899-2.992c-2.345-.525-4.933-2.426-4.286-6.024 6.429-33.803 36.957-43.993 64.29-43.993 13.99 0 32.266 3.72 43.305 14.314 13.99 13.06 12.655 30.487 12.655 49.451v44.801c0 13.464 5.58 19.367 10.837 26.645 1.86 2.588 2.264 5.702-.081 7.642-5.863 4.893-16.295 13.991-22.037 19.085zM220.271 352.164v-6.226c-20.783 0-42.739 4.447-42.739 28.95 0 12.414 6.429 20.824 17.467 20.824 8.087 0 15.325-4.974 19.894-13.06 5.661-9.947 5.378-19.287 5.378-30.488m28.991 70.072c-1.901 1.699-4.65 1.82-6.793.688-9.543-7.925-11.241-11.605-16.497-19.166-15.769 16.093-26.929 20.904-47.389 20.904-24.179 0-43.021-14.92-43.021-44.8 0-23.331 12.655-39.221 30.648-46.985 15.608-6.873 37.402-8.086 54.061-9.987v-3.72c0-6.833.525-14.92-3.478-20.823-3.517-5.297-10.229-7.48-16.133-7.48-10.957 0-20.742 5.62-23.128 17.265-.485 2.588-2.386 5.135-4.973 5.256l-27.9-2.992c-2.345-.525-4.933-2.426-4.286-6.024 6.429-33.803 36.957-43.993 64.29-43.993 13.99 0 32.266 3.72 43.305 14.314 13.99 13.06 12.656 30.487 12.656 49.451v44.801c0 13.464 5.58 19.367 10.836 26.645 1.86 2.588 2.264 5.702-.081 7.642-5.863 4.893-16.295 13.991-22.036 19.085z"/></g><defs><clipPath id="a"><path fill="#fff" d="M135 260h930v280.697H135z"/></clipPath></defs></svg>

<svg width="1200" height="800" viewBox="0 0 1200 800" fill="none" xmlns="http://www.w3.org/2000/svg">
<rect width="1200" height="800" fill="white"/>
<g clip-path="url(#clip0_642_142)">
<path d="M711.826 479.289C657.847 519.076 579.607 540.304 512.244 540.304C417.79 540.304 332.758 505.369 268.427 447.265C263.373 442.696 267.902 436.469 273.967 440.027C343.392 480.421 429.233 504.722 517.905 504.722C577.707 504.722 643.493 492.349 703.982 466.673C713.12 462.792 720.762 472.658 711.826 479.289Z" fill="#FF9900"/>
<path d="M734.267 453.613C727.393 444.799 688.657 449.449 671.27 451.511C665.974 452.158 665.165 447.548 669.936 444.233C700.787 422.52 751.41 428.787 757.314 436.065C763.217 443.384 755.777 494.128 726.786 518.348C722.339 522.068 718.093 520.087 720.074 515.154C726.584 498.899 741.181 462.468 734.267 453.613Z" fill="#FF9900"/>
<path d="M672.484 290.947V269.841C672.484 266.647 674.91 264.504 677.821 264.504H772.315C775.348 264.504 777.774 266.687 777.774 269.841V287.915C777.733 290.947 775.186 294.91 770.657 301.177L721.692 371.088C739.887 370.643 759.093 373.352 775.59 382.652C779.31 384.754 780.321 387.827 780.604 390.86V413.381C780.604 416.454 777.208 420.053 773.649 418.193C744.577 402.949 705.963 401.292 673.818 418.355C670.543 420.134 667.106 416.576 667.106 413.503V392.113C667.106 388.676 667.146 382.813 670.583 377.597L727.312 296.244H677.942C674.91 296.244 672.484 294.101 672.484 290.947Z" fill="#221F1F"/>
<path d="M327.784 422.641H299.035C296.286 422.439 294.103 420.377 293.9 417.748V270.205C293.9 267.253 296.367 264.908 299.44 264.908H326.248C329.037 265.029 331.261 267.172 331.464 269.841V289.128H331.989C338.984 270.488 352.125 261.795 369.835 261.795C387.828 261.795 399.069 270.488 407.156 289.128C414.11 270.488 429.92 261.795 446.862 261.795C458.911 261.795 472.093 266.768 480.139 277.928C489.237 290.341 487.377 308.375 487.377 324.184L487.336 417.304C487.336 420.255 484.87 422.641 481.797 422.641H453.089C450.218 422.439 447.913 420.134 447.913 417.304V339.104C447.913 332.878 448.479 317.351 447.105 311.448C444.962 301.541 438.533 298.751 430.203 298.751C423.249 298.751 415.97 303.401 413.019 310.841C410.067 318.281 410.35 330.735 410.35 339.104V417.304C410.35 420.255 407.884 422.641 404.811 422.641H376.103C373.191 422.439 370.927 420.134 370.927 417.304L370.887 339.104C370.887 322.648 373.596 298.428 353.177 298.428C332.515 298.428 333.323 322.041 333.323 339.104V417.304C333.323 420.255 330.857 422.641 327.784 422.641Z" fill="#221F1F"/>
<path d="M859.126 261.795C901.784 261.795 924.872 298.428 924.872 345.008C924.872 390.011 899.358 425.714 859.126 425.714C817.237 425.714 794.432 389.081 794.432 343.431C794.432 297.498 817.52 261.795 859.126 261.795ZM859.369 291.918C838.182 291.918 836.847 320.788 836.847 338.781C836.847 356.814 836.564 395.308 859.126 395.308C881.406 395.308 882.457 364.254 882.457 345.331C882.457 332.878 881.931 317.998 878.171 306.191C874.936 295.921 868.507 291.918 859.369 291.918Z" fill="#221F1F"/>
<path d="M980.186 422.641H951.559C948.688 422.439 946.383 420.134 946.383 417.304L946.343 269.72C946.585 267.011 948.971 264.908 951.882 264.908H978.528C981.035 265.029 983.097 266.728 983.663 269.032V291.594H984.189C992.235 271.418 1003.52 261.795 1023.37 261.795C1036.27 261.795 1048.84 266.445 1056.93 279.181C1064.45 290.988 1064.45 310.841 1064.45 325.114V417.991C1064.13 420.579 1061.74 422.641 1058.91 422.641H1030.08C1027.45 422.439 1025.27 420.498 1024.99 417.991V337.851C1024.99 321.718 1026.85 298.104 1006.99 298.104C999.999 298.104 993.57 302.795 990.375 309.911C986.332 318.928 985.806 327.904 985.806 337.851V417.304C985.766 420.255 983.259 422.641 980.186 422.641Z" fill="#221F1F"/>
<path d="M597.155 352.164V345.938C576.372 345.938 554.417 350.385 554.417 374.888C554.417 387.302 560.846 395.712 571.884 395.712C579.971 395.712 587.209 390.738 591.778 382.652C597.438 372.705 597.155 363.365 597.155 352.164ZM626.147 422.236C624.246 423.935 621.497 424.056 619.354 422.924C609.811 414.999 608.113 411.319 602.857 403.758C587.087 419.851 575.928 424.662 555.468 424.662C531.288 424.662 512.446 409.742 512.446 379.862C512.446 356.531 525.102 340.641 543.095 332.877C558.703 326.004 580.497 324.791 597.155 322.89V319.17C597.155 312.337 597.681 304.25 593.678 298.347C590.16 293.05 583.448 290.867 577.545 290.867C566.587 290.867 556.802 296.487 554.417 308.132C553.931 310.72 552.031 313.267 549.443 313.388L521.544 310.396C519.199 309.871 516.611 307.97 517.258 304.372C523.687 270.569 554.215 260.379 581.548 260.379C595.538 260.379 613.814 264.099 624.853 274.693C638.843 287.753 637.508 305.18 637.508 324.144V368.945C637.508 382.409 643.088 388.312 648.345 395.59C650.205 398.178 650.609 401.292 648.264 403.232C642.401 408.125 631.969 417.223 626.227 422.317L626.147 422.236Z" fill="#221F1F"/>
<path d="M220.271 352.164V345.938C199.488 345.938 177.532 350.385 177.532 374.888C177.532 387.302 183.961 395.712 194.999 395.712C203.086 395.712 210.324 390.738 214.893 382.652C220.554 372.705 220.271 363.365 220.271 352.164ZM249.262 422.236C247.361 423.935 244.612 424.056 242.469 422.924C232.926 414.999 231.228 411.319 225.972 403.758C210.203 419.851 199.043 424.662 178.583 424.662C154.404 424.662 135.562 409.742 135.562 379.862C135.562 356.531 148.217 340.641 166.21 332.877C181.818 326.004 203.612 324.791 220.271 322.89V319.17C220.271 312.337 220.796 304.25 216.793 298.347C213.276 293.05 206.564 290.867 200.66 290.867C189.703 290.867 179.918 296.487 177.532 308.132C177.047 310.72 175.146 313.267 172.559 313.388L144.659 310.396C142.314 309.871 139.726 307.97 140.373 304.372C146.802 270.569 177.33 260.379 204.663 260.379C218.653 260.379 236.929 264.099 247.968 274.693C261.958 287.753 260.624 305.18 260.624 324.144V368.945C260.624 382.409 266.204 388.312 271.46 395.59C273.32 398.178 273.724 401.292 271.379 403.232C265.516 408.125 255.084 417.223 249.343 422.317L249.262 422.236Z" fill="#221F1F"/>
</g>
<defs>
<clipPath id="clip0_642_142">
<rect width="930" height="280.697" fill="white" transform="translate(135 260)"/>
</clipPath>
</defs>
</svg>
